X: 260
T:Ave Maria ... virgo serena (\`a 6)
N: Derived from Jos2306.2-Ave_Maria_..._virgo_serena--a_6.krn
C: Josquin des Prez
%%abc-version 2.0
%%abcx-abcm2ps-target-version 5.9.1 (29 Sep 2008)
%%abc-creator hum2abc beta
%%abcx-conversion-date 2019/02/12 16:15:51
%%abc-edited-by Jesse Rodin
%%abc-edited-by Jesse Rodin; Victoria Chang 2012/02/05
%%abcx-initial-encoding-date 2012/02/05/
%%humdrum-veritas 1606155166
%%humdrum-veritas-data 394067234
%%linebreak <none>
%%barnumbers 0
L: 1/4
M: 2/1
Q: 1/2=120
V: 1 clef=treble
V: 2 clef=treble
V: 3 clef=treble-8
V: 4 clef=treble-8
V: 5 clef=treble-8
V: 6 clef=bass
K: C
[V:1] G4c4- | 
[V:2] z4C4 | 
[V:3] z8 | 
[V:4] z8 | 
[V:5] z8 | 
[V:6] z8 | 
[V:1] c4c4 | 
[V:2] F6E2 | 
[V:3] z8 | 
[V:4] z8 | 
[V:5] z8 | 
[V:6] z8 | 
[V:1] d4e4 | 
[V:2] D4C2G2 | 
[V:3] G4c4- | 
[V:4] z8 | 
[V:5] z4C4 | 
[V:6] z8 | 
[V:1] c8 | 
[V:2] A3GABc2- | 
[V:3] c4c4 | 
[V:4] z8 | 
[V:5] F3EF2A2 | 
[V:6] z8 | 
[V:1] z8 | 
[V:2] c2B2c4 | 
[V:3] d4e4 | 
[V:4] G4c4- | 
[V:5] G4C2C2 | 
[V:6] z8 | 
[V:1] z8 | 
[V:2] z2c3BA2 | 
[V:3] c8 | 
[V:4] c4c4 | 
[V:5] F3GABc2- | 
[V:6] z8 | 
[V:1] z8 | 
[V:2] G6G2 | 
[V:3] z8 | 
[V:4] d4e4 | 
[V:5] c2B2c4 | 
[V:6] G,,4C,4- | 
[V:1] c6B2 | 
[V:2] E3DEFG2- | 
[V:3] z8 | 
[V:4] c8 | 
[V:5] c3BA2G2 | 
[V:6] C,4C,4 | 
[V:1] A4G4 | 
[V:2] G2F2G2E2- | 
[V:3] z8 | 
[V:4] z8 | 
[V:5] d3cB2c2- | 
[V:6] D,4E,4 | 
[V:1] A2G2c4- | 
[V:2] EDEFGAG2- | 
[V:3] c6B2 | 
[V:4] z8 | 
[V:5] c2BAG4 | 
[V:6] C,8 | 
[V:1] c2BAB4 | 
[V:2] G2F2G4 | 
[V:3] A4G4 | 
[V:4] z8 | 
[V:5] c4d4 | 
[V:6] z8 | 
[V:1] c8 | 
[V:2] z4E4 | 
[V:3] A3Gc4- | 
[V:4] c6B2 | 
[V:5] c3BA2G2 | 
[V:6] z8 | 
[V:1] z8 | 
[V:2] F2F2G4 | 
[V:3] c2BAB4 | 
[V:4] A4G4 | 
[V:5] F4E4 | 
[V:6] z8 | 
[V:1] z8 | 
[V:2] E4E3D | 
[V:3] c8 | 
[V:4] A2G2c4- | 
[V:5] z2E3FG2- | 
[V:6] C,6B,,2 | 
[V:1] z8 | 
[V:2] E2F2D4 | 
[V:3] z8 | 
[V:4] c2BAB4 | 
[V:5] G2F2G4 | 
[V:6] A,,4G,,4 | 
[V:1] z4c4- | 
[V:2] C2c4BA | 
[V:3] z8 | 
[V:4] c8 | 
[V:5] E4F4 | 
[V:6] A,,6B,,2 | 
[V:1] c2c2c4 | 
[V:2] G2A2G2c2- | 
[V:3] z8 | 
[V:4] z8 | 
[V:5] E2c3BA2 | 
[V:6] C,8 | 
[V:1] d4e4 | 
[V:2] c2B2c3B | 
[V:3] z4c4- | 
[V:4] z8 | 
[V:5] G4C4 | 
[V:6] z8 | 
[V:1] c3BA2G2 | 
[V:2] AGF4E2 | 
[V:3] c2c2c4 | 
[V:4] z8 | 
[V:5] F3GABc2- | 
[V:6] z8 | 
[V:1] F4E2c2- | 
[V:2] D4C4 | 
[V:3] d4e4 | 
[V:4] z4c4- | 
[V:5] c2B2c3B | 
[V:6] z8 | 
[V:1] cBA4G2 | 
[V:2] z8 | 
[V:3] c8 | 
[V:4] c2c2c4 | 
[V:5] AGF4E2 | 
[V:6] z8 | 
[V:1] F4E4 | 
[V:2] z4G4 | 
[V:3] z8 | 
[V:4] d4e4 | 
[V:5] D4C4 | 
[V:6] z4C,4- | 
[V:1] z8 | 
[V:2] G2G2E4 | 
[V:3] c8 | 
[V:4] c2e3dg2- | 
[V:5] z8 | 
[V:6] C,2C,2C,4 | 
[V:1] z8 | 
[V:2] D4z2G2- | 
[V:3] A4G4 | 
[V:4] g2^f2g4 | 
[V:5] z8 | 
[V:6] D,4E,4 | 
[V:1] c8 | 
[V:2] GFEDEFG2- | 
[V:3] A3Bc4- | 
[V:4] z8 | 
[V:5] c4A2G2 | 
[V:6] C,8 | 
[V:1] A4G4 | 
[V:2] G2^F2G4 | 
[V:3] c2d2e4- | 
[V:4] c8 | 
[V:5] A3Bc4- | 
[V:6] z8 | 
[V:1] c4d4 | 
[V:2] z8 | 
[V:3] e2dcg3f | 
[V:4] A4G4 | 
[V:5] c2BAB4 | 
[V:6] z8 | 
[V:1] e4z2e2- | 
[V:2] z4G4 | 
[V:3] edc6 | 
[V:4] g3fedc2- | 
[V:5] c4G4 | 
[V:6] C,8 | 
[V:1] edc4B2 | 
[V:2] c4z4 | 
[V:3] e2f2g4 | 
[V:4] cBc2d4 | 
[V:5] A4z2G2 | 
[V:6] A,,4G,,4 | 
[V:1] c8 | 
[V:2] c6BA | 
[V:3] e8 | 
[V:4] c8- | 
[V:5] c2A2c2d2 | 
[V:6] A,,6B,,2 | 
[V:1] z4c4 | 
[V:2] G6G2 | 
[V:3] z4c4 | 
[V:4] c8 | 
[V:5] e6e2 | 
[V:6] C,8 | 
[V:1] c4d4 | 
[V:2] A6B2 | 
[V:3] e4f4 | 
[V:4] z8 | 
[V:5] A4d4 | 
[V:6] z8 | 
[V:1] e4e2f2- | 
[V:2] c4z4 | 
[V:3] g4g2a2- | 
[V:4] z8 | 
[V:5] c3de2d2 | 
[V:6] z8 | 
[V:1] fee4d2 | 
[V:2] z4A4 | 
[V:3] a2g2f4 | 
[V:4] z8 | 
[V:5] c4d4 | 
[V:6] z8 | 
[V:1] e8 | 
[V:2] A4c4- | 
[V:3] e8 | 
[V:4] z4c4 | 
[V:5] A4z4 | 
[V:6] z4C,4 | 
[V:1] z8 | 
[V:2] c2B2A4 | 
[V:3] z4A4 | 
[V:4] c4d4 | 
[V:5] z8 | 
[V:6] E,4F,4 | 
[V:1] z8 | 
[V:2] G3AB2A2- | 
[V:3] B6c2- | 
[V:4] e4e2f2- | 
[V:5] z8 | 
[V:6] G,4G,2A,2- | 
[V:1] z8 | 
[V:2] A2B2c2d2 | 
[V:3] cBB4A2 | 
[V:4] f2e4d2 | 
[V:5] z8 | 
[V:6] A,2G,2F,4 | 
[V:1] z8 | 
[V:2] G8 | 
[V:3] B8 | 
[V:4] e8 | 
[V:5] z8 | 
[V:6] E,8 | 
[V:1] z4e4 | 
[V:2] z4c4 | 
[V:3] z4c4 | 
[V:4] z4g4 | 
[V:5] z4G4 | 
[V:6] z4C,4 | 
[V:1] e4e4 | 
[V:2] c6c2 | 
[V:3] c4c4 | 
[V:4] g4g4 | 
[V:5] G2G2c4 | 
[V:6] C,4C,4 | 
[V:1] f6e2 | 
[V:2] c4c4 | 
[V:3] c6de | 
[V:4] a6g2 | 
[V:5] A3GABc2 | 
[V:6] F,3E,F,2C,2 | 
[V:1] d4c4 | 
[V:2] z4c4 | 
[V:3] f2d2g4- | 
[V:4] f4e4 | 
[V:5] A2B2G4 | 
[V:6] D,2B,,2C,4 | 
[V:1] B4G4 | 
[V:2] d6e2 | 
[V:3] g8 | 
[V:4] d4B2c2- | 
[V:5] z2G2G2c2 | 
[V:6] G,6E,2 | 
[V:1] A4B4 | 
[V:2] c2A2d2G2 | 
[V:3] f2a2g4 | 
[V:4] c2d4e2- | 
[V:5] A4z4 | 
[V:6] F,4G,4 | 
[V:1] c4A4 | 
[V:2] c4z4 | 
[V:3] c4a4 | 
[V:4] e2c4d2- | 
[V:5] z2A2A2d2 | 
[V:6] A,6F,2 | 
[V:1] B4c4 | 
[V:2] z8 | 
[V:3] g2b2a4 | 
[V:4] d2e4f2- | 
[V:5] B2G2c4 | 
[V:6] G,4A,4 | 
[V:1] d4B4 | 
[V:2] z8 | 
[V:3] d3ef2g2 | 
[V:4] f2d4e2- | 
[V:5] z8 | 
[V:6] _B,6G,2 | 
[V:1] c4d4 | 
[V:2] z8 | 
[V:3] c4z2d2 | 
[V:4] e2f4g2- | 
[V:5] z8 | 
[V:6] A,4B,4 | 
[V:1] e3de2f2- | 
[V:2] c4c4 | 
[V:3] c2A3Bc2 | 
[V:4] g2a3ga2 | 
[V:5] z8 | 
[V:6] C3B,C2A,2 | 
[V:1] fedcd2e2- | 
[V:2] z8 | 
[V:3] d2G3AB2 | 
[V:4] f2g3fg2 | 
[V:5] z2d2d2B2 | 
[V:6] B,3A,B,2G,2 | 
[V:1] edc4B2 | 
[V:2] C4G3F | 
[V:3] c2A2G4 | 
[V:4] e2f2d4 | 
[V:5] A4z4 | 
[V:6] A,2F,2G,4 | 
[V:1] c8 | 
[V:2] EDE4C2 | 
[V:3] G2g3fed | 
[V:4] c8- | 
[V:5] z8 | 
[V:6] C,8- | 
[V:1] z4G4 | 
[V:2] G4E4 | 
[V:3] e4z4 | 
[V:4] c8 | 
[V:5] G4c2c2 | 
[V:6] C,8 | 
[V:1] c6B2 | 
[V:2] z2A4D2 | 
[V:3] c4f4- | 
[V:4] z8 | 
[V:5] A4z4 | 
[V:6] z8 | 
[V:1] c4d4 | 
[V:2] A4A4 | 
[V:3] f2e2f4 | 
[V:4] z8 | 
[V:5] z2A2d2d2 | 
[V:6] z8 | 
[V:1] B6AG | 
[V:2] z4G4 | 
[V:3] g4e4- | 
[V:4] z8 | 
[V:5] G4z4 | 
[V:6] z8 | 
[V:1] G4G2A2- | 
[V:2] E3FG2FE | 
[V:3] e2dcc4 | 
[V:4] z8 | 
[V:5] C3DE2F2 | 
[V:6] z8 | 
[V:1] AGc4B2 | 
[V:2] D3/E/F2G4 | 
[V:3] B2c2d4 | 
[V:4] z4G4 | 
[V:5] G2A2G4 | 
[V:6] z8 | 
[V:1] c8 | 
[V:2] E4z4 | 
[V:3] c4z4 | 
[V:4] c6B2 | 
[V:5] G4z4 | 
[V:6] C,4F,4- | 
[V:1] z8 | 
[V:2] c3BAGA2- | 
[V:3] z8 | 
[V:4] c4d4 | 
[V:5] z2C2F2D2 | 
[V:6] F,2E,2F,4 | 
[V:1] z8 | 
[V:2] A2G4G2 | 
[V:3] z8 | 
[V:4] B6AG | 
[V:5] EDEFG3A | 
[V:6] G,4E,4- | 
[V:1] z8 | 
[V:2] G2F2E4 | 
[V:3] z8 | 
[V:4] G4G2A2- | 
[V:5] B2B2c4 | 
[V:6] E,2D,C,C,4 | 
[V:1] z4d4 | 
[V:2] z8 | 
[V:3] z8 | 
[V:4] AGc4B2 | 
[V:5] d2e2f4 | 
[V:6] B,,2C,2D,4 | 
[V:1] e4c4 | 
[V:2] z2G4E2 | 
[V:3] z8 | 
[V:4] c8 | 
[V:5] e4z4 | 
[V:6] C,8 | 
[V:1] d4B4 | 
[V:2] F4G2E2- | 
[V:3] z4g4 | 
[V:4] z8 | 
[V:5] z2d2e4 | 
[V:6] z8 | 
[V:1] c3BA4 | 
[V:2] E2F3GAB | 
[V:3] a4f4 | 
[V:4] z4d4 | 
[V:5] A4d4 | 
[V:6] z8 | 
[V:1] G8 | 
[V:2] c2B2c4 | 
[V:3] g4e4 | 
[V:4] e4c4 | 
[V:5] z8 | 
[V:6] z8 | 
[V:1] z8 | 
[V:2] A4G4 | 
[V:3] f3ed4 | 
[V:4] d4B4 | 
[V:5] z8 | 
[V:6] z4G,4 | 
[V:1] z8 | 
[V:2] E4F4 | 
[V:3] c3Bc2d2- | 
[V:4] c3BA4 | 
[V:5] z8 | 
[V:6] A,4F,4 | 
[V:1] z4G4 | 
[V:2] z8 | 
[V:3] dBB4c2- | 
[V:4] G4g4 | 
[V:5] z2d2e2e2 | 
[V:6] G,4E,4 | 
[V:1] c4d4 | 
[V:2] z8 | 
[V:3] cBA4GF | 
[V:4] a4f4 | 
[V:5] c2A2d2d2 | 
[V:6] F,3E,D,4 | 
[V:1] e4d2e2- | 
[V:2] z2c2d2B2 | 
[V:3] c4B4 | 
[V:4] g4z2g2 | 
[V:5] G4z4 | 
[V:6] C,4G,4 | 
[V:1] ecc4d2- | 
[V:2] A6A2 | 
[V:3] c4A4 | 
[V:4] e2f3edc | 
[V:5] z4z2A2 | 
[V:6] A,4F,4 | 
[V:1] dBB4e2 | 
[V:2] B6AG | 
[V:3] G8 | 
[V:4] B2G2g4 | 
[V:5] d4e4 | 
[V:6] G,4E,4 | 
[V:1] dcc4B2 | 
[V:2] A4G4 | 
[V:3] z8 | 
[V:4] f2e2d4 | 
[V:5] A2A2B4 | 
[V:6] F,4G,4 | 
[V:1] c4z4 | 
[V:2] E8 | 
[V:3] z8 | 
[V:4] c8 | 
[V:5] G4G4 | 
[V:6] C,8 | 
[V:1] c4c2c2 | 
[V:2] G4A2A2 | 
[V:3] c4c2c2 | 
[V:4] z8 | 
[V:5] z2C2F2A2 | 
[V:6] z8 | 
[V:1] d4B2c2- | 
[V:2] D3CDEF2 | 
[V:3] g6a2- | 
[V:4] z8 | 
[V:5] G6F2 | 
[V:6] z8 | 
[V:1] c2B2A4 | 
[V:2] E2D4D2 | 
[V:3] agg4^f2 | 
[V:4] z8 | 
[V:5] G4D4 | 
[V:6] z8 | 
[V:1] G8 | 
[V:2] E4z2G2 | 
[V:3] g8 | 
[V:4] c4c2c2 | 
[V:5] G8 | 
[V:6] C,4C,2C,2 | 
[V:1] z8 | 
[V:2] G2G2E2F2 | 
[V:3] z8 | 
[V:4] d4B2c2- | 
[V:5] z8 | 
[V:6] G,4G,2A,2- | 
[V:1] z8 | 
[V:2] G4A4 | 
[V:3] z8 | 
[V:4] c2B2A4 | 
[V:5] z4D4 | 
[V:6] A,G,G,4^F,2 | 
[V:1] B4B2B2 | 
[V:2] D4z2G2 | 
[V:3] g3fe2d2 | 
[V:4] G8 | 
[V:5] G3AB2G2 | 
[V:6] G,8 | 
[V:1] c4B2A2- | 
[V:2] E2E2F3G | 
[V:3] c4d2f2- | 
[V:4] z8 | 
[V:5] A2A2D3E | 
[V:6] z8 | 
[V:1] A2G2F4 | 
[V:2] ABc3AB2 | 
[V:3] fee4d2 | 
[V:4] z8 | 
[V:5] F2C2D4 | 
[V:6] z8 | 
[V:1] E4z2E2- | 
[V:2] c2BAG2c2- | 
[V:3] e6dc | 
[V:4] z8 | 
[V:5] A2GFE2A2 | 
[V:6] z8 | 
[V:1] E2DCG4 | 
[V:2] c2B2c4 | 
[V:3] g4c4 | 
[V:4] z4e4 | 
[V:5] G4z2c2- | 
[V:6] z4C,4 | 
[V:1] z8 | 
[V:2] z2G4A2- | 
[V:3] z8 | 
[V:4] e4d4 | 
[V:5] c2B4A2- | 
[V:6] G,6F,2- | 
[V:1] z8 | 
[V:2] A2GFG4 | 
[V:3] z8 | 
[V:4] f4e4 | 
[V:5] A2c4BA | 
[V:6] F,2E,D,C,2G,2- | 
[V:1] z8 | 
[V:2] G2A2F2G2- | 
[V:3] z8 | 
[V:4] d3cd2e2- | 
[V:5] B2A4GF | 
[V:6] G,2F,4E,D, | 
[V:1] z8 | 
[V:2] GFGEF4 | 
[V:3] z8 | 
[V:4] edc4B2 | 
[V:5] G4A2F2 | 
[V:6] C,2E,2D,4 | 
[V:1] z8 | 
[V:2] E8 | 
[V:3] z8 | 
[V:4] c8 | 
[V:5] G8 | 
[V:6] C,8 | 
[V:1] [M:3/1]G4G4G4 | 
[V:2] [M:3/1]c4c4c4 | 
[V:3] [M:3/1]e4e4e4 | 
[V:4] [M:3/1]z4c4c4 | 
[V:5] [M:3/1]C4C4C4 | 
[V:6] [M:3/1]C4C4C4 | 
[V:1] A8A4 | 
[V:2] A4d2c2B2A2 | 
[V:3] f6e2d2c2 | 
[V:4] c4d8 | 
[V:5] F4D8 | 
[V:6] F,8F,4 | 
[V:1] B8B4 | 
[V:2] G4G2F2E2D2 | 
[V:3] B8B4 | 
[V:4] d4e8 | 
[V:5] G4E6F2 | 
[V:6] G,8G,4 | 
[V:1] G8z4 | 
[V:2] E8z4 | 
[V:3] c8z4 | 
[V:4] e4c8 | 
[V:5] G8z4 | 
[V:6] C,8z4 | 
[V:1] G4G4G4 | 
[V:2] c4c4c4 | 
[V:3] e4e4e4 | 
[V:4] z4c4c4 | 
[V:5] C4C4C4 | 
[V:6] C4C4C4 | 
[V:1] A8A4 | 
[V:2] A4d2c2B2A2 | 
[V:3] f6e2d2c2 | 
[V:4] c4d8 | 
[V:5] F4D8 | 
[V:6] F,8F,4 | 
[V:1] B8B4 | 
[V:2] G4G2F2E2D2 | 
[V:3] B8B4 | 
[V:4] d4e8 | 
[V:5] G4E6F2 | 
[V:6] G,8G,4 | 
[V:1] G8G4 | 
[V:2] E4z4E4 | 
[V:3] c8g4 | 
[V:4] e4c8 | 
[V:5] G8z4 | 
[V:6] C,8C4 | 
[V:1] c8c4 | 
[V:2] C4c2B2A2G2 | 
[V:3] a8a4 | 
[V:4] c4f8 | 
[V:5] F4F4A4 | 
[V:6] A,8A,4 | 
[V:1] A8A4 | 
[V:2] F4F2E2D2C2 | 
[V:3] f8f4 | 
[V:4] f4d8 | 
[V:5] D4D4d4- | 
[V:6] D8D4 | 
[V:1] d6c2B2A2 | 
[V:2] D4D4G4 | 
[V:3] g8d4 | 
[V:4] d4g6f2 | 
[V:5] d2c2B2A2G4 | 
[V:6] G,8G,4 | 
[V:1] G8G4 | 
[V:2] G6F2E2D2 | 
[V:3] e8g4 | 
[V:4] e2d2c8 | 
[V:5] C6D2E4 | 
[V:6] C8C4 | 
[V:1] c8c4 | 
[V:2] C8c4 | 
[V:3] a6g2f2e2 | 
[V:4] c4f8 | 
[V:5] F8z4 | 
[V:6] A,8A,4 | 
[V:1] d4e6d2 | 
[V:2] B8A4 | 
[V:3] d4B4c4 | 
[V:4] f4g4e4 | 
[V:5] z4G4c4- | 
[V:6] B,4G,4A,4 | 
[V:1] c8B4 | 
[V:2] c4G8 | 
[V:3] A4G8 | 
[V:4] f4d8 | 
[V:5] c2A2B4G4 | 
[V:6] F,4G,8 | 
[V:1] [M:2/1]c8 | 
[V:2] [M:2/1]E6C2 | 
[V:3] [M:2/1]g4e4- | 
[V:4] [M:2/1]c8- | 
[V:5] [M:2/1]G6A2 | 
[V:6] [M:2/1]C,8- | 
[V:1] z8 | 
[V:2] G4z2G2- | 
[V:3] e2dcc4 | 
[V:4] c8 | 
[V:5] G8 | 
[V:6] C,8 | 
[V:1] d8 | 
[V:2] GABcd2B2 | 
[V:3] z4g4 | 
[V:4] z8 | 
[V:5] z4z2G2- | 
[V:6] z8 | 
[V:1] d4d4 | 
[V:2] d3c/B/A2d2 | 
[V:3] g4f4 | 
[V:4] z8 | 
[V:5] GABcd2B2 | 
[V:6] z8 | 
[V:1] e6dc | 
[V:2] G3AB3A | 
[V:3] e2dcg4 | 
[V:4] z8 | 
[V:5] c2BAG2G2- | 
[V:6] z8 | 
[V:1] B4B2d2- | 
[V:2] Bcd2G2B2- | 
[V:3] G8 | 
[V:4] d8 | 
[V:5] GABcd2G2 | 
[V:6] z4G,4 | 
[V:1] d2cBA2A2 | 
[V:2] B2AGA4 | 
[V:3] z4A4 | 
[V:4] d4d4 | 
[V:5] d4z2D2 | 
[V:6] G,4F,4 | 
[V:1] G8 | 
[V:2] z8 | 
[V:3] B2c4c2 | 
[V:4] e6dc | 
[V:5] G2G2G4 | 
[V:6] E,4C,4 | 
[V:1] z8 | 
[V:2] z2G2G2G2 | 
[V:3] dcBAG4 | 
[V:4] B4B2d2- | 
[V:5] G4z2G2 | 
[V:6] G,6F,E, | 
[V:1] z8 | 
[V:2] F2D2E2F2 | 
[V:3] z8 | 
[V:4] d2cBA4 | 
[V:5] A2B2c2c2 | 
[V:6] F,2G,4^F,2 | 
[V:1] d8 | 
[V:2] D8 | 
[V:3] z4g4 | 
[V:4] G8 | 
[V:5] B4z2G2- | 
[V:6] G,8 | 
[V:1] d4d4 | 
[V:2] z2d4A2 | 
[V:3] g4f4 | 
[V:4] z8 | 
[V:5] GABcd4 | 
[V:6] z8 | 
[V:1] e6dc | 
[V:2] c2G3ABc | 
[V:3] e2dcg4 | 
[V:4] z8 | 
[V:5] A2c2G3A | 
[V:6] z8 | 
[V:1] B4B2d2- | 
[V:2] d2G3AB2- | 
[V:3] G8 | 
[V:4] d8 | 
[V:5] BABcd4 | 
[V:6] z4G,4 | 
[V:1] d2cBA4 | 
[V:2] B2AGA4 | 
[V:3] z4A4 | 
[V:4] d4d4 | 
[V:5] z4D4 | 
[V:6] G,4F,4 | 
[V:1] G8 | 
[V:2] z8 | 
[V:3] B2c6 | 
[V:4] e6dc | 
[V:5] G6G2 | 
[V:6] E,4C,4 | 
[V:1] z8 | 
[V:2] G8 | 
[V:3] dcBAG4 | 
[V:4] B4B2d2- | 
[V:5] G4z4 | 
[V:6] G,6F,E, | 
[V:1] z8 | 
[V:2] A8 | 
[V:3] z8 | 
[V:4] d2cBA4 | 
[V:5] D4D4 | 
[V:6] F,2G,4^F,2 | 
[V:1] z4G4 | 
[V:2] B3ABcd2 | 
[V:3] z2g4fe | 
[V:4] G8 | 
[V:5] z8 | 
[V:6] G,8 | 
[V:1] A4B4 | 
[V:2] c2d3cB2 | 
[V:3] f2d4e2- | 
[V:4] z8 | 
[V:5] z2D2G4 | 
[V:6] z8 | 
[V:1] c6B2 | 
[V:2] A2A2G4 | 
[V:3] e2dcd4 | 
[V:4] z4G4 | 
[V:5] A4B2G2 | 
[V:6] z4G,4 | 
[V:1] c4d4 | 
[V:2] z8 | 
[V:3] z2f4ed | 
[V:4] A4B4 | 
[V:5] c4F4 | 
[V:6] F,3E,D,4 | 
[V:1] e8 | 
[V:2] z4G4 | 
[V:3] g3fg2e2- | 
[V:4] c6B2 | 
[V:5] G4z4 | 
[V:6] C,3D,E,F,G,2 | 
[V:1] z8 | 
[V:2] E4A4 | 
[V:3] edcBA4 | 
[V:4] c4d4 | 
[V:5] z8 | 
[V:6] A,2E,2F,4 | 
[V:1] z4e4 | 
[V:2] G3AB2c2- | 
[V:3] B2G2g4 | 
[V:4] e8 | 
[V:5] z8 | 
[V:6] E,8 | 
[V:1] e4d4 | 
[V:2] c2B4A2 | 
[V:3] z2g3fd2 | 
[V:4] z8 | 
[V:5] z8 | 
[V:6] z8 | 
[V:1] c6d2- | 
[V:2] G2A3GFE | 
[V:3] e2f3edc | 
[V:4] z8 | 
[V:5] z8 | 
[V:6] z8 | 
[V:1] d4c4- | 
[V:2] D2G4A2 | 
[V:3] B4c4 | 
[V:4] z4e4 | 
[V:5] G4c2A2 | 
[V:6] z8 | 
[V:1] c2B6 | 
[V:2] G4G4 | 
[V:3] G4z2g2- | 
[V:4] e4d4 | 
[V:5] B3ABcd2 | 
[V:6] z4G,4 | 
[V:1] c4z4 | 
[V:2] z4z2A2- | 
[V:3] gfede2A2- | 
[V:4] c6d2- | 
[V:5] e4A4 | 
[V:6] E,2A,3G,F,E, | 
[V:1] z8 | 
[V:2] A2G4F2 | 
[V:3] A2B2G2A2- | 
[V:4] d4c4- | 
[V:5] z8 | 
[V:6] F,2G,2E,2F,2- | 
[V:1] z8 | 
[V:2] C2DEF2D2 | 
[V:3] A2G4F2 | 
[V:4] c2B6 | 
[V:5] z8 | 
[V:6] F,E,D,C,D,4 | 
[V:1] z8 | 
[V:2] E8 | 
[V:3] G8 | 
[V:4] c8 | 
[V:5] z8 | 
[V:6] C,8 | 
[V:1] z8 | 
[V:2] z8 | 
[V:3] z8 | 
[V:4] z8 | 
[V:5] z8 | 
[V:6] z8 | 
[V:1] c8 | 
[V:2] G8 | 
[V:3] g8 | 
[V:4] c8 | 
[V:5] G8 | 
[V:6] C,8 | 
[V:1] d4e4 | 
[V:2] B4B4 | 
[V:3] g4g4 | 
[V:4] B4B4 | 
[V:5] G4G4 | 
[V:6] G,4G,4 | 
[V:1] f8 | 
[V:2] c8 | 
[V:3] a8 | 
[V:4] A6B2 | 
[V:5] c3BA2GF | 
[V:6] F,6E,D, | 
[V:1] e8 | 
[V:2] c8 | 
[V:3] g8 | 
[V:4] c8 | 
[V:5] G8 | 
[V:6] C,8 | 
[V:1] z4e4 | 
[V:2] z4c4 | 
[V:3] z4g4 | 
[V:4] z4c4 | 
[V:5] z4G4 | 
[V:6] z4C,4 | 
[V:1] e4d4 | 
[V:2] G4B4 | 
[V:3] g4g4 | 
[V:4] c4B4 | 
[V:5] C4G4 | 
[V:6] C4G,4 | 
[V:1] c8 | 
[V:2] A8 | 
[V:3] e4f4 | 
[V:4] c8 | 
[V:5] c3BAGA2 | 
[V:6] A,8 | 
[V:1] B16 | 
[V:2] d16 | 
[V:3] g16 | 
[V:4] d16 | 
[V:5] B16 | 
[V:6] G,16 | 
[V:1] c8 | 
[V:2] e8 | 
[V:3] g8 | 
[V:4] c8 | 
[V:5] G8 | 
[V:6] C,8 | 
[V:1] c8 |]  
[V:2] e8 |]  
[V:3] g8 |]  
[V:4] c8 |]  
[V:5] G8 |]  
[V:6] C,8 |]  



